src/images/std-icons/std-youtube.svg

<svg xmlns="http://www.w3.org/2000/svg" width="512" height="512" viewBox="0 0 512 512">
  <title>youtube</title>
  <polygon fill="#000" fill-rule="nonzero" points="231.232 292.011 294.528 256 231.232 219.989"/>
  <path fill="#000" fill-rule="nonzero" d="M256,42.6666667 C138.179253,42.6666667 42.6666667,138.179253 42.6666667,256 C42.6666667,373.820747 138.179253,469.333333 256,469.333333 C373.820747,469.333333 469.333333,373.820747 469.333333,256 C469.333333,199.420482 446.857207,145.158314 406.849447,105.150553 C366.841686,65.1427926 312.579518,42.6666667 256,42.6666667 Z M372.055893,314.68352 C369.271137,325.172757 361.111572,333.385481 350.64064,336.238293 C319.240093,340.015594 287.624589,341.717635 256,341.333333 C224.375411,341.717635 192.759907,340.015594 161.35936,336.238293 C150.888428,333.385481 142.728863,325.172757 139.944107,314.68352 C136.451796,295.32015 134.757047,275.675387 134.881493,256 C134.757003,236.324611 136.451752,216.679844 139.944107,197.31648 C142.729176,186.827157 150.888513,178.614174 161.35936,175.760427 C192.75998,171.984072 224.37545,170.28246 256,170.666667 C287.62455,170.28246 319.24002,171.984072 350.64064,175.760427 C361.111487,178.614174 369.270824,186.827157 372.055893,197.31648 C375.548248,216.679844 377.242997,236.324611 377.118507,256 C377.242953,275.675387 375.548204,295.32015 372.055893,314.68352 L372.055893,314.68352 Z"/>
</svg>

<svg xmlns="http://www.w3.org/2000/svg" viewBox="0 0 512 512">
  <title>
    youtube
  </title>
  <path d="M231.23 292.01l63.3-36.01-63.3-36.01z"/>
  <path d="M256 42.67c-117.82 0-213.33 95.5-213.33 213.33 0 117.82 95.5 213.33 213.33 213.33 117.82 0 213.33-95.5 213.33-213.33A213.33 213.33 0 0 0 256 42.67zm116.06 272.01a30.43 30.43 0 0 1-21.42 21.56 719.24 719.24 0 0 1-94.64 5.1 719.24 719.24 0 0 1-94.64-5.1 30.43 30.43 0 0 1-21.42-21.56c-3.49-19.36-5.18-39-5.06-58.68a319.24 319.24 0 0 1 5.06-58.68 30.44 30.44 0 0 1 21.42-21.56 719.42 719.42 0 0 1 94.64-5.1 719.42 719.42 0 0 1 94.64 5.1 30.44 30.44 0 0 1 21.42 21.56c3.49 19.36 5.18 39 5.06 58.68a319.25 319.25 0 0 1-5.06 58.68z"/>
</svg>
